X: 293
T:Deus pacis reduxit
N: Derived from Jos2604-Deus_pacis_reduxit.krn
C: Josquin des Prez
%%abc-version 2.0
%%abcx-abcm2ps-target-version 5.9.1 (29 Sep 2008)
%%abc-creator hum2abc beta
%%abcx-conversion-date 2019/02/12 16:15:53
%%abc-edited-by Jesse Rodin
%%abc-edited-by Megan K. Eagen 05/13/2012
%%abcx-initial-encoding-date 2012/05/06/
%%humdrum-veritas 794816462
%%humdrum-veritas-data 2507693201
%%linebreak <none>
%%barnumbers 0
L: 1/4
M: 2/1
Q: 1/2=120
%%staves [1 2 3 4]
V: 1 clef=treble
V: 2 clef=treble-8
V: 3 clef=treble-8
V: 4 clef=bass
K: Bb
[V:1] F8 | 
[V:2] z4B4- | 
[V:3] z8 | 
[V:4] z8 | 
[V:1] G4A4 | 
[V:2] B4c4 | 
[V:3] z8 | 
[V:4] z8 | 
[V:1] B6G2 | 
[V:2] d4e4- | 
[V:3] z8 | 
[V:4] z8 | 
[V:1] G4z4 | 
[V:2] e2c2c4 | 
[V:3] z8 | 
[V:4] z8 | 
[V:1] c4c4- | 
[V:2] z4f4 | 
[V:3] z8 | 
[V:4] z8 | 
[V:1] c2B2A2G2 | 
[V:2] f6e2 | 
[V:3] z8 | 
[V:4] z8 | 
[V:1] A4F4 | 
[V:2] d2c2d4 | 
[V:3] z8 | 
[V:4] z8 | 
[V:1] G4G4 | 
[V:2] B4c4 | 
[V:3] z8 | 
[V:4] z8 | 
[V:1] A4z4 | 
[V:2] c4d4 | 
[V:3] F8 | 
[V:4] z4B,,4- | 
[V:1] z8 | 
[V:2] z8 | 
[V:3] G4A4 | 
[V:4] B,,4C,4 | 
[V:1] z8 | 
[V:2] z8 | 
[V:3] B6G2 | 
[V:4] D,4E,4- | 
[V:1] z8 | 
[V:2] z8 | 
[V:3] G4z4 | 
[V:4] E,2C,2C,4 | 
[V:1] z8 | 
[V:2] z8 | 
[V:3] c4c4- | 
[V:4] z4F,4 | 
[V:1] z8 | 
[V:2] z8 | 
[V:3] c2B2A2G2 | 
[V:4] F,6E,2 | 
[V:1] z8 | 
[V:2] z8 | 
[V:3] A4F4 | 
[V:4] D,2C,2D,4 | 
[V:1] z8 | 
[V:2] z8 | 
[V:3] G4G4 | 
[V:4] B,,4C,4 | 
[V:1] z8 | 
[V:2] z4d4 | 
[V:3] A4z4 | 
[V:4] C,4D,4 | 
[V:1] A4c4- | 
[V:2] f6f2 | 
[V:3] z8 | 
[V:4] z8 | 
[V:1] c2c2c4 | 
[V:2] f4e4 | 
[V:3] z8 | 
[V:4] z8 | 
[V:1] B6B2 | 
[V:2] e4d3e | 
[V:3] z8 | 
[V:4] z8 | 
[V:1] A8- | 
[V:2] f8- | 
[V:3] z4A4 | 
[V:4] D,4F,4- | 
[V:1] A8 | 
[V:2] f8 | 
[V:3] c6c2 | 
[V:4] F,2F,2F,4 | 
[V:1] z8 | 
[V:2] z8 | 
[V:3] c4B4 | 
[V:4] E,4E,4 | 
[V:1] z8 | 
[V:2] z8 | 
[V:3] B4A4 | 
[V:4] D,3E,F,4- | 
[V:1] c6c2 | 
[V:2] z8 | 
[V:3] z4c4- | 
[V:4] F,4z4 | 
[V:1] c4A3F | 
[V:2] z4f4- | 
[V:3] c2c2c4 | 
[V:4] F,6F,2 | 
[V:1] F2A4B2- | 
[V:2] f2f2f4 | 
[V:3] A3FF4 | 
[V:4] F,4D,3B,, | 
[V:1] BAF2G2A2 | 
[V:2] d3BB4 | 
[V:3] B6A2 | 
[V:4] B,,4E,4- | 
[V:1] B2c2d4 | 
[V:2] z4F4 | 
[V:3] G3FB4- | 
[V:4] E,4D,4 | 
[V:1] e4c2e2- | 
[V:2] G4E3F | 
[V:3] B2AGA4 | 
[V:4] C,8 | 
[V:1] e2dcd2c2 | 
[V:2] G2F4f2- | 
[V:3] B6A2 | 
[V:4] B,,8- | 
[V:1] B6AG | 
[V:2] f2e2d3c/B/ | 
[V:3] G4F4 | 
[V:4] B,,8 | 
[V:1] A4B4- | 
[V:2] c4B2e2 | 
[V:3] z8 | 
[V:4] z8 | 
[V:1] B2A2G4 | 
[V:2] dcf4=e2 | 
[V:3] z8 | 
[V:4] z8 | 
[V:1] F4z4 | 
[V:2] f4z4 | 
[V:3] B4c4 | 
[V:4] z4F,4 | 
[V:1] z8 | 
[V:2] z8 | 
[V:3] e2d4cB | 
[V:4] G,4B,2A,2- | 
[V:1] z8 | 
[V:2] z4B4 | 
[V:3] c4B2B2- | 
[V:4] A,2G,F,G,4 | 
[V:1] F4G4 | 
[V:2] c4e2d2- | 
[V:3] B2A2c2B2 | 
[V:4] F,4z4 | 
[V:1] B2A4GF | 
[V:2] d2cBc4 | 
[V:3] z2f4e2 | 
[V:4] z8 | 
[V:1] G4F4 | 
[V:2] B4z2d2- | 
[V:3] d3c/B/A4 | 
[V:4] z4F,4 | 
[V:1] z8 | 
[V:2] d2cBd2c2 | 
[V:3] B4z4 | 
[V:4] G,4B,2A,2- | 
[V:1] z4z2G2 | 
[V:2] F2f4=e2 | 
[V:3] z4B4 | 
[V:4] A,2G,F,G,4 | 
[V:1] A2c3AB2 | 
[V:2] f4z4 | 
[V:3] c4e2d2- | 
[V:4] F,4z4 | 
[V:1] F2B4A2 | 
[V:2] z8 | 
[V:3] d2cBc4 | 
[V:4] z8 | 
[V:1] B8 | 
[V:2] F4G3A | 
[V:3] B8 | 
[V:4] B,,4E,4- | 
[V:1] z8 | 
[V:2] B2c4B2 | 
[V:3] z8 | 
[V:4] E,4D,4 | 
[V:1] z8 | 
[V:2] cGc3BAF | 
[V:3] z8 | 
[V:4] C,3D,E,2F,2- | 
[V:1] z8 | 
[V:2] GABcdef2- | 
[V:3] z8 | 
[V:4] F,2E,2F,4 | 
[V:1] F4G3A | 
[V:2] fed2c4 | 
[V:3] B4e4- | 
[V:4] z8 | 
[V:1] B2c4B2 | 
[V:2] z8 | 
[V:3] e4d4 | 
[V:4] z8 | 
[V:1] cGc3BAF | 
[V:2] z8 | 
[V:3] c3de2f2- | 
[V:4] z8 | 
[V:1] G4A3F | 
[V:2] c4c4- | 
[V:3] f2e2f4 | 
[V:4] z4F,4 | 
[V:1] A2B2c4 | 
[V:2] c2B2A2G2 | 
[V:3] z2f2f4- | 
[V:4] F,6E,2 | 
[V:1] d8- | 
[V:2] F4f4 | 
[V:3] f2e2d2c2 | 
[V:4] D,2C,2B,,4 | 
[V:1] d8 | 
[V:2] f6e2 | 
[V:3] B4z4 | 
[V:4] B,4B,4- | 
[V:1] z8 | 
[V:2] d2c2B2c2- | 
[V:3] z8 | 
[V:4] B,2A,2G,2F,2 | 
[V:1] z4c4 | 
[V:2] cBG2A4 | 
[V:3] z8 | 
[V:4] E,4z4 | 
[V:1] c6B2 | 
[V:2] F4z4 | 
[V:3] c4c4- | 
[V:4] z4F,4 | 
[V:1] A2G2F4 | 
[V:2] z4c4 | 
[V:3] c2B2A2G2 | 
[V:4] F,6E,2 | 
[V:1] F4B2B2- | 
[V:2] d8 | 
[V:3] F4F4 | 
[V:4] D,2C,2B,,4 | 
[V:1] BAGFG4 | 
[V:2] d4G4 | 
[V:3] B4B2B2 | 
[V:4] B,,4E,4 | 
[V:1] G4F4 | 
[V:2] z2G2A2B2 | 
[V:3] c4d3c | 
[V:4] E,2E,2D,3E, | 
[V:1] z8 | 
[V:2] A2B3AF2 | 
[V:3] d2e3dd2- | 
[V:4] F,2G,3F,D,2 | 
[V:1] z8 | 
[V:2] G2A3Bc2 | 
[V:3] d2c2d2e2- | 
[V:4] E,2F,3E,C,2 | 
[V:1] z8 | 
[V:2] BAA4G2 | 
[V:3] edd4c2 | 
[V:4] D,4E,4 | 
[V:1] F4B4 | 
[V:2] A4z2B2 | 
[V:3] d8 | 
[V:4] D,4z4 | 
[V:1] B2B2c4 | 
[V:2] e4e2e2 | 
[V:3] z8 | 
[V:4] z8 | 
[V:1] d3cd2e2- | 
[V:2] d3ef2g2- | 
[V:3] z8 | 
[V:4] z8 | 
[V:1] edd4c2 | 
[V:2] gfd2e2f2- | 
[V:3] z8 | 
[V:4] z8 | 
[V:1] d2e3dd2- | 
[V:2] fec2d4 | 
[V:3] z8 | 
[V:4] z8 | 
[V:1] d2c2d4- | 
[V:2] e4d4 | 
[V:3] z8 | 
[V:4] z4D,4 | 
[V:1] d4z4 | 
[V:2] z2d4cB | 
[V:3] z8 | 
[V:4] G,6G,2 | 
[V:1] z8 | 
[V:2] c4B2G2 | 
[V:3] A4d4- | 
[V:4] F,4z2B,2- | 
[V:1] z8 | 
[V:2] G4z4 | 
[V:3] d2d2c4 | 
[V:4] B,2A,G,A,G,F,E, | 
[V:1] z8 | 
[V:2] z8 | 
[V:3] z2d4cB | 
[V:4] D,3E,F,D,G,2- | 
[V:1] z8 | 
[V:2] A4d4- | 
[V:3] c4B4- | 
[V:4] G,2^F,2G,4 | 
[V:1] z4A4 | 
[V:2] d2d2c4 | 
[V:3] B4z4 | 
[V:4] z2G,4F,2 | 
[V:1] d6d2 | 
[V:2] z2f4ed | 
[V:3] z8 | 
[V:4] G,2D,2D,4 | 
[V:1] c4z2d2- | 
[V:2] e2f2d3e | 
[V:3] z4B4 | 
[V:4] z8 | 
[V:1] d2cBc4 | 
[V:2] fdg4^f2 | 
[V:3] B4A4 | 
[V:4] z8 | 
[V:1] B8 | 
[V:2] g4z2G2- | 
[V:3] G3ABGB2- | 
[V:4] z4E,4 | 
[V:1] z8 | 
[V:2] GABcd4 | 
[V:3] B2AGF4 | 
[V:4] E,4D,4 | 
[V:1] z8 | 
[V:2] z4e4 | 
[V:3] c4z2G2 | 
[V:4] C,3D,E,C,E,2- | 
[V:1] B4B4 | 
[V:2] e4d4 | 
[V:3] Bcdef2F2- | 
[V:4] E,2D,C,B,,4 | 
[V:1] A4G3A | 
[V:2] c3dece2- | 
[V:3] FGABc4 | 
[V:4] F,4z4 | 
[V:1] BGB4AG | 
[V:2] e2dcB4 | 
[V:3] z8 | 
[V:4] z8 | 
[V:1] F4c4 | 
[V:2] f4z2F2- | 
[V:3] B4A2A2- | 
[V:4] z8 | 
[V:1] z4B4 | 
[V:2] FGA2B2d2- | 
[V:3] A2F2G4 | 
[V:4] z8 | 
[V:1] A2A4F2 | 
[V:2] d2cBA2B2- | 
[V:3] FGABcAd2- | 
[V:4] z8 | 
[V:1] G4F3G | 
[V:2] B2G2A4 | 
[V:3] d2c2d4 | 
[V:4] E,4D,2D,2- | 
[V:1] AFB4A2 | 
[V:2] F2G4E2 | 
[V:3] z4e4 | 
[V:4] D,2B,,2C,4 | 
[V:1] B4z4 | 
[V:2] F2G3Ff2- | 
[V:3] d2d4B2 | 
[V:4] B,,4z4 | 
[V:1] e4d2d2- | 
[V:2] f2e2f3d | 
[V:3] c4B4 | 
[V:4] z8 | 
[V:1] d2B2c4 | 
[V:2] f2e4c2 | 
[V:3] z8 | 
[V:4] z8 | 
[V:1] B2F3GAB | 
[V:2] d4c4 | 
[V:3] z4z2F2- | 
[V:4] B,4A,2A,2- | 
[V:1] cAd3ce2 | 
[V:2] z2f2d2B2 | 
[V:3] FGA2B2G2 | 
[V:4] A,2F,2G,4 | 
[V:1] d2c3BAG | 
[V:2] f4e2c2 | 
[V:3] A3Bcde2 | 
[V:4] F,4z4 | 
[V:1] A2B2G4 | 
[V:2] z2f4e2 | 
[V:3] d2B2c4 | 
[V:4] z4z2C,2 | 
[V:1] F4z2B2- | 
[V:2] d2c2d4 | 
[V:3] F4z2F2 | 
[V:4] D,2F,4D,2 | 
[V:1] B2A2G2F2 | 
[V:2] c4z4 | 
[V:3] G2A2B4 | 
[V:4] E,2F,2B,,4 | 
[V:1] G4F4 | 
[V:2] z4z2B2 | 
[V:3] B4z4 | 
[V:4] z2E,4D,2 | 
[V:1] z4z2A2 | 
[V:2] c2d2e3d | 
[V:3] z2B4A2 | 
[V:4] C,2B,,2C,4 | 
[V:1] B2d4cB | 
[V:2] d2B2B4 | 
[V:3] G2F2G4 | 
[V:4] B,,4z2B,2- | 
[V:1] c2F2G2A2 | 
[V:2] z2c2e2d2- | 
[V:3] F4z2f2- | 
[V:4] B,2A,2G,2F,2 | 
[V:1] B3GA4- | 
[V:2] d2cBf4- | 
[V:3] f2e2d2c2 | 
[V:4] G,4F,4- | 
[V:1] A8 ||  
[V:2] f8 ||  
[V:3] d4c4 ||  
[V:4] F,8 ||  
[V:1]  [K:Bb] [M:2/1]G8 | 
[V:2]  [K:Bb] [M:2/1]c6BA | 
[V:3]  [K:Bb] [M:2/1]z8 | 
[V:4]  [K:Bb] [M:2/1]z8 | 
[V:1] G4G4 | 
[V:2] G2c3BAG | 
[V:3] z8 | 
[V:4] z8 | 
[V:1] A4G2A2- | 
[V:2] FGABc2F2- | 
[V:3] c8 | 
[V:4] z8 | 
[V:1] A2GFG4 | 
[V:2] F2f3=e=ed | 
[V:3] c4c4 | 
[V:4] z8 | 
[V:1] F3GA3G | 
[V:2] f8- | 
[V:3] d4c2d2- | 
[V:4] F,8 | 
[V:1] AFB4A2 | 
[V:2] f8 | 
[V:3] d2cBc4 | 
[V:4] F,4F,4 | 
[V:1] B4z4 | 
[V:2] z8 | 
[V:3] B3cd3c | 
[V:4] G,4F,2G,2- | 
[V:1] z4A4 | 
[V:2] z8 | 
[V:3] dBe4d2 | 
[V:4] G,2F,E,F,4 | 
[V:1] G4B4- | 
[V:2] z2B3cde | 
[V:3] e4z4 | 
[V:4] E,4z4 | 
[V:1] B2A2A4 | 
[V:2] f2F3GAB | 
[V:3] d4c4 | 
[V:4] z8 | 
[V:1] G3ABcd2- | 
[V:2] c4G3A | 
[V:3] e6d2 | 
[V:4] z8 | 
[V:1] d2cBA4 | 
[V:2] Bcd3ef2- | 
[V:3] d4z4 | 
[V:4] z4D,4 | 
[V:1] z2c2B2GA | 
[V:2] f2e2g4- | 
[V:3] z8 | 
[V:4] C,4E,4- | 
[V:1] Bcd4cB | 
[V:2] g2f2f4- | 
[V:3] z4d4 | 
[V:4] E,2D,2D,4 | 
[V:1] A4G4 | 
[V:2] f4B4 | 
[V:3] c4e4- | 
[V:4] F,4E,3F, | 
[V:1] B8 | 
[V:2] z4B4 | 
[V:3] e2d2d4 | 
[V:4] G,A,B,4A,G, | 
[V:1] A4c4 | 
[V:2] c3defg2 | 
[V:3] f4e4- | 
[V:4] F,4C,3D, | 
[V:1] B6AG | 
[V:2] G3ABcd2 | 
[V:3] e2d2d4 | 
[V:4] E,F,G,4F,E, | 
[V:1] F8- | 
[V:2] d2cBA4 | 
[V:3] z4c4 | 
[V:4] D,4z4 | 
[V:1] F8 | 
[V:2] z8 | 
[V:3] c2c2d4 | 
[V:4] F,4F,2F,2 | 
[V:1] z8 | 
[V:2] z8 | 
[V:3] B2B2c4- | 
[V:4] G,4E,2E,2 | 
[V:1] z8 | 
[V:2] z8 | 
[V:3] c2BAd2c2- | 
[V:4] F,6E,D, | 
[V:1] z4c4 | 
[V:2] z8 | 
[V:3] c2BAG4 | 
[V:4] E,C,F,4=E,2 | 
[V:1] c2c2d4 | 
[V:2] f4f2f2 | 
[V:3] F4z4 | 
[V:4] F,4z4 | 
[V:1] B2B2c4- | 
[V:2] g4e2e2 | 
[V:3] z8 | 
[V:4] z8 | 
[V:1] c2BAd2c2- | 
[V:2] f6ed | 
[V:3] z8 | 
[V:4] z8 | 
[V:1] c2BAG4 | 
[V:2] ecf4=e2 | 
[V:3] z8 | 
[V:4] z4z2C,2 | 
[V:1] F8 | 
[V:2] f4z4 | 
[V:3] z4z2F2 | 
[V:4] D,2E,2F,4 | 
[V:1] z8 | 
[V:2] z2c2d2e2 | 
[V:3] G2A2B4 | 
[V:4] C,4z4 | 
[V:1] z2F2G2A2 | 
[V:2] f4c4 | 
[V:3] F4z4 | 
[V:4] z8 | 
[V:1] B4F4 | 
[V:2] z2d4cB | 
[V:3] z8 | 
[V:4] G,4B,4 | 
[V:1] z8 | 
[V:2] c2FGABcA | 
[V:3] z4c4 | 
[V:4] A,4F,4 | 
[V:1] z8 | 
[V:2] B2c2dGB2- | 
[V:3] e4d4 | 
[V:4] G,2A,2B,2G,2- | 
[V:1] z8 | 
[V:2] BAGFA2B2 | 
[V:3] B4c2d2 | 
[V:4] G,F,E,D,C,2B,,2 | 
[V:1] c4e4 | 
[V:2] c2G2g4- | 
[V:3] e2c3BB2- | 
[V:4] z2C,3D,E,F, | 
[V:1] d4B4 | 
[V:2] g2f2e2d2 | 
[V:3] B2A2B4 | 
[V:4] G,2D,2G,4 | 
[V:1] c2d2e2c2- | 
[V:2] f4g2f2- | 
[V:3] z2A2B2A2 | 
[V:4] F,4E,2F,2 | 
[V:1] cBB4A2 | 
[V:2] f2d2c4 | 
[V:3] B3A/G/F4 | 
[V:4] B,,4z4 | 
[V:1] B4z2B2- | 
[V:2] z2g3fed | 
[V:3] z4B4 | 
[V:4] E,4E,4- | 
[V:1] BAGFGFf2- | 
[V:2] e4d4 | 
[V:3] B6B2 | 
[V:4] E,2E,2B,,4 | 
[V:1] fedcd4 | 
[V:2] z8 | 
[V:3] F4z2F2- | 
[V:4] z2B,,3C,D,E, | 
[V:1] c4z4 | 
[V:2] z8 | 
[V:3] FGABc2c2 | 
[V:4] F,2F,2F,3F, | 
[V:1] z4B4 | 
[V:2] e4e4- | 
[V:3] c3cG3A | 
[V:4] C,3D,E,4- | 
[V:1] B6B2 | 
[V:2] e2e2B4 | 
[V:3] B8 | 
[V:4] E,4z4 | 
[V:1] F4z2F2- | 
[V:2] z2B3cde | 
[V:3] z8 | 
[V:4] z8 | 
[V:1] FGABc2c2 | 
[V:2] f2f2f3f | 
[V:3] z8 | 
[V:4] z8 | 
[V:1] c3cG3A | 
[V:2] c3de4- | 
[V:3] z8 | 
[V:4] z4E,4 | 
[V:1] B8 | 
[V:2] e4z2B2 | 
[V:3] B4B2B2 | 
[V:4] E,2E,2G,3A, | 
[V:1] z8 | 
[V:2] B2B2d3e | 
[V:3] d3ef4 | 
[V:4] B,4z2B,,2 | 
[V:1] z4z2F2 | 
[V:2] f8 | 
[V:3] z2F2F2F2 | 
[V:4] B,,2B,,2D,3E, | 
[V:1] F2F2A3B | 
[V:2] z4z2F2 | 
[V:3] A3Bc4- | 
[V:4] F,8 | 
[V:1] c4z2F2- | 
[V:2] F2F2A3B | 
[V:3] c4z2c2- | 
[V:4] z2F,4F,2 | 
[V:1] FGA3Bcd | 
[V:2] c2F2f2f2 | 
[V:3] c2c2c4- | 
[V:4] F,4F,4 | 
[V:1] e3ce2d2- | 
[V:2] g6fe | 
[V:3] c4B4 | 
[V:4] E,4G,4- | 
[V:1] d2cBA4- | 
[V:2] d3ef4 | 
[V:3] d8 | 
[V:4] G,4F,4- | 
[V:1] A2F2G3A | 
[V:2] z2f4e2 | 
[V:3] c8 | 
[V:4] F,4z4 | 
[V:1] B4A4- | 
[V:2] d4c4 | 
[V:3] z4F4 | 
[V:4] B,,4F,4- | 
[V:1] A2F2G3A | 
[V:2] z8 | 
[V:3] c8 | 
[V:4] F,4E,4 | 
[V:1] B4z4 | 
[V:2] z4B4 | 
[V:3] B4d4- | 
[V:4] G,8 | 
[V:1] F4c4- | 
[V:2] f8 | 
[V:3] d4c4- | 
[V:4] F,8 | 
[V:1] c4B4 | 
[V:2] e4g4- | 
[V:3] c6G2- | 
[V:4] z2C,2E,F,G,A, | 
[V:1] d8 | 
[V:2] g4f4 | 
[V:3] GABcd2B2 | 
[V:4] B,2G,2B,3A, | 
[V:1] c8 | 
[V:2] z8 | 
[V:3] f3ec3d | 
[V:4] F,3G,A,2F,2 | 
[V:1] z8 | 
[V:2] z8 | 
[V:3] e2d2c4 | 
[V:4] G,F,B,4A,2 | 
[V:1] [M:3/1]F8G4 | 
[V:2] [M:3/1]z4B8 | 
[V:3] [M:3/1]B8z4 | 
[V:4] [M:3/1]B,6A,2G,4 | 
[V:1] A8F4 | 
[V:2] c4d8 | 
[V:3] z12 | 
[V:4] F,8z4 | 
[V:1] G4A4B4 | 
[V:2] B4c4d4 | 
[V:3] z12 | 
[V:4] z12 | 
[V:1] c6B2A2G2 | 
[V:2] e4f6e2 | 
[V:3] z12 | 
[V:4] z12 | 
[V:1] F8z4 | 
[V:2] d2c2B8 | 
[V:3] F8G4 | 
[V:4] z4B,,8 | 
[V:1] z12 | 
[V:2] z12 | 
[V:3] A8F4 | 
[V:4] C,4D,8 | 
[V:1] z12 | 
[V:2] z12 | 
[V:3] G4A4B4 | 
[V:4] B,,4C,4D,4 | 
[V:1] z12 | 
[V:2] z12 | 
[V:3] c6B2A2G2 | 
[V:4] E,4F,6E,2 | 
[V:1] z12 | 
[V:2] z12 | 
[V:3] F8f4- | 
[V:4] D,2C,2B,,8 | 
[V:1] F8G4 | 
[V:2] z4B8 | 
[V:3] f4d4e4 | 
[V:4] B,6A,2G,4 | 
[V:1] A4F4G4 | 
[V:2] c4d4B4 | 
[V:3] f6e2d4 | 
[V:4] F,8z4 | 
[V:1] A4B6A2 | 
[V:2] c4d4e4- | 
[V:3] c4z4z4 | 
[V:4] z12 | 
[V:1] G4F8 | 
[V:2] e4d8 | 
[V:3] z4B8 | 
[V:4] z12 | 
[V:1] z12 | 
[V:2] z12 | 
[V:3] c4d4B4 | 
[V:4] F,8G,4 | 
[V:1] z12 | 
[V:2] z4d6B2 | 
[V:3] c4d4e4- | 
[V:4] A,4F,4G,4 | 
[V:1] z4F8 | 
[V:2] c4f4d4 | 
[V:3] e4d8 | 
[V:4] A,4B,6A,2 | 
[V:1] G4A4F4 | 
[V:2] e4f8 | 
[V:3] z4z4d4 | 
[V:4] G,4F,8 | 
[V:1] G4A4B4- | 
[V:2] z4F8 | 
[V:3] B4c4d4- | 
[V:4] z4z4B,,4- | 
[V:1] B4A8 | 
[V:2] G4A4F4 | 
[V:3] d4c4A4 | 
[V:4] B,,4C,4D,4 | 
[V:1] z12 | 
[V:2] G4A4B4- | 
[V:3] d4c4F4 | 
[V:4] B,,4C,4D,4 | 
[V:1] z12 | 
[V:2] B2A2G4F4 | 
[V:3] z12 | 
[V:4] E,8D,4- | 
[V:1] z4B8 | 
[V:2] f4e6d2 | 
[V:3] z12 | 
[V:4] D,4z4z4 | 
[V:1] c4d4B4 | 
[V:2] c4f4e4 | 
[V:3] F8G4 | 
[V:4] z12 | 
[V:1] c4d4e4- | 
[V:2] c4B4c4- | 
[V:3] A4F4G4 | 
[V:4] F,4D,4C,4- | 
[V:1] e4d8 | 
[V:2] c4F8 | 
[V:3] A4B8 | 
[V:4] C,4B,,8 | 
[V:1] [M:2/1]z4c4 | 
[V:2] [M:2/1]z8 | 
[V:3] [M:2/1]A8 | 
[V:4] [M:2/1]F,8 | 
[V:1] c4d4- | 
[V:2] f4f4 | 
[V:3] z8 | 
[V:4] z8 | 
[V:1] d2c2B2A2 | 
[V:2] g6f2 | 
[V:3] z8 | 
[V:4] z8 | 
[V:1] G4c4 | 
[V:2] e2d2c4 | 
[V:3] z8 | 
[V:4] z8 | 
[V:1] A4B4 | 
[V:2] f4d4 | 
[V:3] z8 | 
[V:4] z8 | 
[V:1] c6F2 | 
[V:2] e4f4- | 
[V:3] c4c4 | 
[V:4] z4F,4 | 
[V:1] F4z4 | 
[V:2] f4B4 | 
[V:3] d6c2 | 
[V:4] F,4G,4- | 
[V:1] z8 | 
[V:2] z4z2d2 | 
[V:3] B2A2G4 | 
[V:4] G,2F,2E,2D,2 | 
[V:1] z2G2A4 | 
[V:2] e4c2f2- | 
[V:3] c4A4 | 
[V:4] C,4F,4 | 
[V:1] F2B4AG | 
[V:2] f2edg4 | 
[V:3] B4c4- | 
[V:4] D,4E,4 | 
[V:1] A3Bc2B2 | 
[V:2] f2f3edc | 
[V:3] c2F2F4 | 
[V:4] F,6B,,2 | 
[V:1] f3edcBA | 
[V:2] BA/G/F2B3c | 
[V:3] z2f3edc | 
[V:4] B,,8 | 
[V:1] GFd4cB | 
[V:2] d4z4 | 
[V:3] BAGFG4 | 
[V:4] B,6A,G, | 
[V:1] c4z2B2- | 
[V:2] z2c2d2B2 | 
[V:3] F2f3ed2 | 
[V:4] A,4B,4 | 
[V:1] B2A2G2B2- | 
[V:2] f4B4- | 
[V:3] c2d4cB | 
[V:4] F,4G,4- | 
[V:1] B2AGA4 | 
[V:2] B4z2f2- | 
[V:3] c2d2c4 | 
[V:4] G,2F,E,F,4 | 
[V:1] B4z2F2 | 
[V:2] fde2fedc | 
[V:3] B8- | 
[V:4] G,4D,4 | 
[V:1] G3ABGB2- | 
[V:2] BAGFG4 | 
[V:3] B8- | 
[V:4] E,6D,C, | 
[V:1] BAGFG4 | 
[V:2] F2f2e4 | 
[V:3] B8- | 
[V:4] D,4E,4 | 
[V:1] F8 |]  
[V:2] d8 |]  
[V:3] B8 |]  
[V:4] B,,8 |]  



